app/component-library/components/Icons/Icon/assets/security-tick.svg

<svg width="24" height="24" viewBox="0 0 24 24" fill="none" xmlns="http://www.w3.org/2000/svg">
<path d="M18.8206 4.11984L13.3206 2.05984C12.7506 1.84984 11.8206 1.84984 11.2506 2.05984L5.75057 4.11984C4.69057 4.51984 3.83057 5.75984 3.83057 6.88984V14.9898C3.83057 15.7998 4.36057 16.8698 5.01057 17.3498L10.5106 21.4598C11.4806 22.1898 13.0706 22.1898 14.0406 21.4598L19.5406 17.3498C20.1906 16.8598 20.7206 15.7998 20.7206 14.9898V6.88984C20.7306 5.75984 19.8706 4.51984 18.8206 4.11984ZM15.7606 9.71984L11.4606 14.0198C11.3106 14.1698 11.1206 14.2398 10.9306 14.2398C10.7406 14.2398 10.5506 14.1698 10.4006 14.0198L8.80057 12.3998C8.51057 12.1098 8.51057 11.6298 8.80057 11.3398C9.09057 11.0498 9.57057 11.0498 9.86057 11.3398L10.9406 12.4198L14.7106 8.64984C15.0006 8.35984 15.4806 8.35984 15.7706 8.64984C16.0606 8.93984 16.0606 9.42984 15.7606 9.71984Z" fill="currentColor"/>
</svg>

<svg xmlns="http://www.w3.org/2000/svg" width="24" height="24" viewBox="0 0 24 24" fill="none"><path fill="currentColor" d="m18.82 4.12-5.5-2.06c-.57-.21-1.5-.21-2.07 0l-5.5 2.06c-1.06.4-1.92 1.64-1.92 2.77v8.1c0 .81.53 1.88 1.18 2.36l5.5 4.11c.97.73 2.56.73 3.53 0l5.5-4.11c.65-.49 1.18-1.55 1.18-2.36v-8.1c.01-1.13-.85-2.37-1.9-2.77Zm-3.06 5.6-4.3 4.3c-.15.15-.34.22-.53.22s-.38-.07-.53-.22L8.8 12.4a.754.754 0 0 1 0-1.06c.29-.29.77-.29 1.06 0l1.08 1.08 3.77-3.77c.29-.29.77-.29 1.06 0 .29.29.29.78-.01 1.07Z"/></svg>
